src/icons/drag-up.svg

<svg width="512px" height="512px" viewBox="0 0 512 512" version="1.1" xmlns="http://www.w3.org/2000/svg" xmlns:xlink="http://www.w3.org/1999/xlink">
    <path d="M96,274.35 L416,274.35 L416,297.35 L96,297.35 L96,274.35 L96,274.35 Z M96,343.35 L416,343.35 L416,366.35 L96,366.35 L96,343.35 Z M332.613953,218.754651 L331.748837,217.673256 L266,141.759302 C263.837209,139.163953 260.376744,137.65 256.7,137.65 C253.023256,137.65 249.77907,139.380233 247.4,141.759302 L181.651163,217.456977 L180.569767,218.754651 C179.704651,220.052326 179.272093,221.35 179.272093,222.863953 C179.272093,226.973256 182.948837,230.65 187.274419,230.65 L326.125581,230.65 C330.667442,230.65 334.127907,227.189535 334.127907,222.863953 C333.911628,221.566279 333.47907,220.052326 332.613953,218.754651 L332.613953,218.754651 Z"></path>
</svg>

<svg xmlns="http://www.w3.org/2000/svg" width="512" height="512" viewBox="0 0 512 512">
    <path d="M96 274.35h320v23H96v-23zm0 69h320v23H96v-23zm236.614-124.595l-.865-1.082L266 141.76c-2.163-2.595-5.623-4.109-9.3-4.109-3.677 0-6.92 1.73-9.3 4.11l-65.749 75.697-1.081 1.298c-.865 1.297-1.298 2.595-1.298 4.109 0 4.11 3.677 7.786 8.002 7.786h138.852c4.541 0 8.002-3.46 8.002-7.786-.216-1.298-.649-2.812-1.514-4.11z"/>
</svg>
